system/assets/icons/impacts/cursed_starforged.svg

<svg xmlns="http://www.w3.org/2000/svg" height="512" width="512" viewBox="0 0 512 512"><path fill="#fff" d="M 255.75977 44.763672 C 249.58377 44.763672 243.40704 46.148018 238.62305 48.916016 L 85.869141 137.27539 C 76.29915 142.81139 76.29915 151.56557 85.869141 157.10156 L 238.62305 245.46289 C 248.19304 250.99889 263.32554 250.99889 272.89453 245.46289 L 425.64844 157.10156 C 435.21843 151.56657 435.21843 142.81234 425.64844 137.27734 L 272.89453 48.917969 C 268.10954 46.147972 261.93476 44.763672 255.75977 44.763672 z M 256.68555 127.61914 C 269.52095 127.73158 280.99827 132.391 285.82422 139.44922 C 290.65016 146.50743 287.88768 154.59336 278.8125 159.98047 C 266.36444 167.48594 245.99447 167.5358 233.44531 160.08984 C 220.89617 152.64388 220.97672 140.5566 233.625 133.16992 C 239.73191 129.54692 248.05078 127.54411 256.68555 127.61914 z M 436.44336 173.8418 C 434.19336 173.9018 431.65975 174.67156 428.96875 176.22656 L 282.0332 261.07422 C 272.46321 266.60121 264.89453 279.71168 264.89453 290.76367 L 264.89453 448.46484 C 264.89453 459.51483 272.46321 463.88151 282.0332 458.35352 L 428.9707 373.50977 C 438.54069 367.98277 446.10742 354.87425 446.10742 343.82227 L 446.10742 186.12109 C 446.10742 178.1791 442.19735 173.68975 436.44336 173.84375 L 436.44336 173.8418 z M 75.070312 173.94922 C 73.573314 173.99722 72.197108 174.35153 71.037109 175.01953 C 67.943112 176.80653 66.003906 181.06324 66.003906 186.11523 L 66.003906 343.80273 C 66.003906 348.85473 67.944112 355.34999 71.037109 360.70898 C 74.131106 366.06698 78.75977 370.97986 83.134766 373.50586 L 230.08008 458.36133 C 234.45507 460.88833 239.11013 461.33678 242.20312 459.55078 C 245.29712 457.76578 247.21094 453.49345 247.21094 448.43945 L 247.21094 290.75586 C 247.21094 285.70386 245.29712 279.22323 242.20312 273.86523 C 239.10913 268.50524 234.45507 263.60903 230.08008 261.08203 L 83.134766 176.22461 C 80.399768 174.64461 77.56531 173.87317 75.070312 173.95117 L 75.070312 173.94922 z M 145.29492 289.09961 C 160.31298 288.05784 179.14983 310.99719 179.11328 330.2832 C 179.09838 344.07003 169.02926 349.43182 156.61328 342.26367 C 144.19731 335.09552 134.12784 318.10659 134.11328 304.30273 C 134.09668 295.37424 138.35734 289.58082 145.29492 289.09961 z M 366.82031 289.09961 L 366.82227 289.09961 C 373.75876 289.58181 378.01862 295.37508 378.00195 304.30273 C 377.98735 318.10659 367.91792 335.09552 355.50195 342.26367 C 343.08598 349.43182 333.01688 344.07003 333.00195 330.2832 C 332.96535 310.99719 351.80226 288.05784 366.82031 289.09961 z" /></svg>

<svg height="512" width="512" xmlns="http://www.w3.org/2000/svg" viewBox="0 0 512 512"><g><path d="M255.76 44.764c-6.176 0-12.353 1.384-17.137 4.152L85.87 137.276c-9.57 5.536-9.57 14.29 0 19.826l152.753 88.36c9.57 5.536 24.703 5.536 34.272 0l152.753-88.36c9.57-5.535 9.57-14.29 0-19.825l-152.753-88.36c-4.785-2.77-10.96-4.153-17.135-4.153zm.926 82.855a31.953 18.96 0 0 1 22.127 32.362 31.953 18.96 0 1 1-45.188-26.812 31.953 18.96 0 0 1 23.06-5.55zM75.67 173.84c-5.753-.155-9.664 4.336-9.664 12.28v157.696c0 11.052 7.57 24.163 17.14 29.69l146.93 84.848c9.57 5.526 17.14 1.156 17.14-9.895V290.76c0-11.052-7.57-24.16-17.14-29.688l-146.93-84.847c-2.69-1.555-5.225-2.327-7.476-2.387zm360.773.002c-2.25.06-4.783.83-7.474 2.385l-146.935 84.847c-9.57 5.527-17.14 18.638-17.14 29.69v157.7c0 11.05 7.57 15.418 17.14 9.89L428.97 373.51c9.57-5.527 17.137-18.636 17.137-29.688v-157.7c0-7.942-3.91-12.432-9.664-12.278zM89.297 195.77a31.236 18.008 58.094 0 1 33.818 41.183 31.236 18.008 58.094 1 1-45-25.98 31.236 18.008 58.094 0 1 11.182-15.203zm221.52 64.664A18.008 31.236 31.906 0 1 322 275.637a18.008 31.236 31.906 0 1-45 25.98 18.008 31.236 31.906 0 1 33.818-41.183zM145.296 289.1a31.236 18.008 58.094 0 1 33.818 41.183 31.236 18.008 58.094 0 1-45-25.98 31.236 18.008 58.094 0 1 11.182-15.203zm277.523 29.38A18.008 31.236 31.906 0 1 434 333.684a18.008 31.236 31.906 0 1-45 25.98 18.008 31.236 31.906 0 1 33.818-41.184zm-221.52 64.663a31.236 18.008 58.094 0 1 33.817 41.183 31.236 18.008 58.094 1 1-45-25.98 31.236 18.008 58.094 0 1 11.182-15.203z" fill="#fff" fill-opacity="1"></path></g></svg>
